X: 150
T:Pure Drop
T:The Pure Drop
T:Liz Carrolls
M:C
L:1/8
Q:170
C:Liz Carroll
S:Enda Scahill
K:D
B2 | Affe f2 de | (3fga de f2 ed | Be (3eee fded| BA (3AAA BAFG |
  Affe f2 de | (3fga de ~f2 ed | dBBe (dB(3Bcd) | AFEF D2 :|
|: (3efg | a2 ga fgef | edcd FA (3AAA  | Be (3eee fded |BA (3AAA BAFG | 
a2 ga fgef | edcd FA (3AAA | GBBA BA B2| Affe d2 :|
